X:9
T:Gavottes
R:Gavotte ton simple
C:Trad.
O:France
A:Bretagne
Z:anamnese@caramail.com
M:4/4
L:1/8
Q:1/4=150
K:G
P:[1]
DG GE FG A2 | AG FE D2D2 :||: DG GE FG AB | cB AF G2G2 :|
P:[2]
dd B/d/B AB cB | AB c/B/A B2B2 :||: dd B/d/B AB cB | AB c/B/A G2G2 :|
